!!!COM:	la Rue, Pierre de
!!!CDT:	~1452///-1518/11/20
!!!OPR:	Missa Ave sanctissima Maria
!!!ONM:	1
!!!OTL:	Kyrie
!!!AGN:	Mass; Kyrie
!!!SCT:	Rue1005a
!!!SCA:	Rue1005a
!!!voices:	6
!!!voices-OPR:	6(-5)
**kern	**kern	**kern	**kern	**kern	**kern
*staff6	*staff5	*staff4	*staff3	*staff2	*staff1
*Ivox	*Ivox	*Ivox	*Ivox	*Ivox	*Ivox
*I"Bassus2	*I"Bassus1	*I"Contra2	*I"Contra1	*I"Discantus2	*I"Discantus1
*I'B2	*I'B1	*I'C2	*I'C1	*I'D2	*I'D1
*>[A,B,C]	*>[A,B,C]	*>[A,B,C]	*>[A,B,C]	*>[A,B,C]	*>[A,B,C]
*>A	*>A	*>A	*>A	*>A	*>A
*clefF4	*clefF4	*clefGv2	*clefGv2	*clefG2	*clefG2
*k[]	*k[]	*k[]	*k[]	*k[]	*k[]
*M2/1	*M2/1	*M2/1	*M2/1	*M2/1	*M2/1
*met(C2)	*met(C2)	*met(C2)	*met(C2)	*met(C2)	*met(C2)
=1-	=1-	=1-	=1-	=1-	=1-
!!section: Kyrie I
!!!OMD: Kyrie I
!	!	!	!	!	!LO:TX:X=-40:Z=8:t=6-ex-3 canon at the upper fourth (B2-->B1, C2-->C1, D2-->D1)
[0G	0r	1.G	0r	[0g	0r
.	.	2E/	.	.	.
=2.	=2.	=2.	=2.	=2.	=2.
1G]	0r	0E	0r	1g]	0r
1C	.	.	.	1e	.
=3	=3	=3	=3	=3	=3
0C	[0c	0E	1.c	0e	[0cc
.	.	.	2A/	.	.
=4.	=4.	=4.	=4.	=4.	=4.
1r	1c]	1A	0A	1r	1cc]
[1D	1F	2A/	.	1a	1a
.	.	[2F/	.	.	.
=5	=5	=5	=5	=5	=5
1D]	0F	2F/]	0A	2a/	0a
.	.	2D/	.	1f	.
1D	.	[1D	.	.	.
.	.	.	.	2d/	.
=6.	=6.	=6.	=6.	=6.	=6.
[0GG	1r	1D]	1d	[0d	1r
.	[1G	1D	2d\	.	1dd
.	.	.	[2B\	.	.
=7	=7	=7	=7	=7	=7
0GG]	1G]	0D	2B\]	0d]	2dd\
.	.	.	2G/	.	1b
.	1G	.	[1G	.	.
.	.	.	.	.	2g/
=8.	=8.	=8.	=8.	=8.	=8.
1r	[0C	0r	1G]	1r	[0g
[1G	.	.	1G	1g	.
=9	=9	=9	=9	=9	=9
2G\]	0C]	1G	0G	1.g	0g]
2F\	.	.	.	.	.
2E\	.	1G	.	.	.
2D\	.	.	.	2f/	.
=10.	=10.	=10.	=10.	=10.	=10.
2C/	1r	1.A	0r	2e/	1r
2BB/	.	.	.	2d/	.
[1AA	[1c	.	.	2c/	1cc
.	.	4G/	.	2B/	.
.	.	4F/	.	.	.
=11	=11	=11	=11	=11	=11
1AA]	2c\]	1E	1c	1A	1.cc
.	2B\	.	.	.	.
1AA	2A\	[1A	1c	1e	.
.	2G\	.	.	.	2b\
=12.	=12.	=12.	=12.	=12.	=12.
0D	2F\	1A]	1.d	[0f	2a/
.	2E\	.	.	.	2g/
.	[1D	1A	.	.	2f/
.	.	.	4c\	.	2e/
.	.	.	4B\	.	.
=13	=13	=13	=13	=13	=13
1.D	1D]	1.F	1A	1f]	1d
.	[1Dl	.	[1dl	1d	1a
2GG/	.	2G/	.	.	.
=14.	=14.	=14.	=14.	=14.	=14.
[0GGl	0D_	[0Gl	0d_	[0dl	[0b
=15	=15	=15	=15	=15	=15
0GG_	0D_	0G_	0d_	0d_	1b]
.	.	.	.	.	1g
=16.	=16.	=16.	=16.	=16.	=16.
0GG]	0D]	0G]	0d]	0d]	0gl
!!LO:LB:i:g=z
=17||	=17||	=17||	=17||	=17||	=17||
*>B	*>B	*>B	*>B	*>B	*>B
*clefF4	*clefF4	*clefGv2	*clefGv2	*clefG2	*clefG2
*k[]	*k[]	*k[]	*k[]	*k[]	*k[]
*M2/1	*M2/1	*M2/1	*M2/1	*M2/1	*M2/1
*met(C2)	*met(C2)	*met(C2)	*met(C2)	*met(C2)	*met(C2)
!!section: Christe
!!!OMD: Christe
0r	0r	1G	0r	1r	0r
.	.	2G/	.	1g	.
.	.	[2E/	.	.	.
=18.	=18.	=18.	=18.	=18.	=18.
0r	0r	4E/]	0r	2g/	0r
.	.	4F/	.	.	.
.	.	2.G/	.	2.e/	.
.	.	4F/	.	4f/	.
.	.	4E/	.	[2g/	.
.	.	4D/	.	.	.
=19	=19	=19	=19	=19	=19
1C	0r	2C/	0r	4g/]	0r
.	.	.	.	4f/	.
.	.	2G/	.	4e/	.
.	.	.	.	4d/	.
2C/	.	2A/	.	1c	.
[2AA/	.	[2A/	.	.	.
=20.	=20.	=20.	=20.	=20.	=20.
4AA/]	0r	2A/]	0r	1r	0r
4BB/	.	.	.	.	.
2.C/	.	4G/	.	.	.
.	.	4F/	.	.	.
.	.	1E	.	1g	.
4BB/	.	.	.	.	.
4AA/	.	.	.	.	.
4GG/	.	.	.	.	.
=21	=21	=21	=21	=21	=21
[0FF	0r	[0F	1c	0a	1r
.	.	.	2c\	.	1cc
.	.	.	[2A/	.	.
=22.	=22.	=22.	=22.	=22.	=22.
0FF]	0r	0F]	4A/]	0a	2cc\
.	.	.	4B\	.	.
.	.	.	2.c\	.	2.a/
.	.	.	4B\	.	4b\
.	.	.	4A/	.	[2cc\
.	.	.	4G/	.	.
=23	=23	=23	=23	=23	=23
0r	1F	0r	2F/	1a	4cc\]
.	.	.	.	.	4b\
.	.	.	2c\	.	4a/
.	.	.	.	.	4g/
.	2F\	.	2d\	2a/	1f
.	[2D\	.	[2d\	[2f/	.
=24.	=24.	=24.	=24.	=24.	=24.
1r	4D\]	1r	2d\]	4f/]	1r
.	4E\	.	.	4g/	.
.	2.F\	.	4c\	2.a/	.
.	.	.	4B\	.	.
1FF	.	1F	1A	.	1cc
.	4E\	.	.	4g/	.
.	4D\	.	.	4f/	.
.	4C/	.	.	4e/	.
=25	=25	=25	=25	=25	=25
2.BB-/	[0BB-i	2F/	[0B-i	0d	0dd
.	.	1G	.	.	.
4C/	.	.	.	.	.
1D	.	.	.	.	.
.	.	2F/	.	.	.
=26.	=26.	=26.	=26.	=26.	=26.
[0GG	0BB-]	0G	0B-]	0d	0dd
=27	=27	=27	=27	=27	=27
0GG]	0r	1.D	0r	0g	1dd
.	.	.	.	.	2dd\
.	.	[2G/	.	.	[2b-i\
=28.	=28.	=28.	=28.	=28.	=28.
[0GG	1r	2G/]	1r	0g	4b-i\]
.	.	.	.	.	4cc\
.	.	4F/	.	.	2.dd\
.	.	4E/	.	.	.
.	1BB-i	2D/	1B-i	.	.
.	.	.	.	.	4cc\
.	.	[2G/	.	.	4b-i\
.	.	.	.	.	4a/
=29	=29	=29	=29	=29	=29
0GG]	2.E-\	2G/]	2B-i\	1r	0g
.	.	4F/	1c	.	.
.	4F\	4E-i/	.	.	.
.	1G	1D	.	1g	.
.	.	.	2Bni\	.	.
=30.	=30.	=30.	=30.	=30.	=30.
0r	[0C	0E	0c	0e	0g
=31	=31	=31	=31	=31	=31
0r	0C]	0E	1.G	2.e/	0cc
.	.	.	.	4f/	.
.	.	.	.	2g/	.
.	.	.	[2c\	[2a/	.
=32.	=32.	=32.	=32.	=32.	=32.
1FF	[0C	1F	2c\]	4a/]	0cc
.	.	.	.	4g/	.
.	.	.	4B\	2f/	.
.	.	.	4A/	.	.
[1C	.	2G/	2G/	2e/	.
.	.	[2E/	[2c\	2a/	.
=33	=33	=33	=33	=33	=33
2C/]	0C]	2E/]	2c\]	4g/	1r
.	.	.	.	4f/	.
2FF/	.	2F/	4B\	1f	.
.	.	.	4A/	.	.
1C	.	1G	1G	.	1cc
.	.	.	.	2e/	.
=34.	=34.	=34.	=34.	=34.	=34.
0FF	0r	[0F	0A	[0f	0a
=35	=35	=35	=35	=35	=35
2.FF/	0r	0F]	0A	0f]	2.a/
4GG/	.	.	.	.	4b-i\
2AA/	.	.	.	.	2cc\
2FF/	.	.	.	.	[2dd\
=36.	=36.	=36.	=36.	=36.	=36.
1GG	1BB-i	0r	1B-i	1r	4dd\]
.	.	.	.	.	4cc\
.	.	.	.	.	2b-i\
1FF	[1F	.	2c\	[1f	2a/
.	.	.	[2A/	.	2dd\
=37	=37	=37	=37	=37	=37
1r	2F\]	0r	2A/]	1f]	4cc\
.	.	.	.	.	4b-i\
.	2BB-i/	.	2B-i\	.	1b-
1FF	1F	.	1c	1f	.
.	.	.	.	.	2a/
=38.	=38.	=38.	=38.	=38.	=38.
0GG	0BB-i	1.G	[0B-i	1d	[0b-i
.	.	.	.	[1d	.
.	.	4F/	.	.	.
.	.	4E/	.	.	.
=39	=39	=39	=39	=39	=39
2.GG/	2.BB-i/	1D	0B-]	1d]	0b-]
4AA/	4C/	.	.	.	.
2BB-i/	2D\	2G/	.	1B-i	.
2GG/	2BB-/	[2G/	.	.	.
=40.	=40.	=40.	=40.	=40.	=40.
1AA	1C	2G/]	0r	1A	1r
.	.	2F#i/	.	.	.
1GG	1BB-i	[1G	.	[1d	[1b-i
=41	=41	=41	=41	=41	=41
1r	1r	1G]	0r	1d]	1b-]
1GG	1BB-i	1G	.	1d	1b-i
=42.	=42.	=42.	=42.	=42.	=42.
0C	0C	[0G	1.c	0e-i	1g
.	.	.	.	.	[1g
.	.	.	4B-i\	.	.
.	.	.	4A/	.	.
=43	=43	=43	=43	=43	=43
0C	2.C/	0G]	[0Gl	0c	1g]
.	4D\	.	.	.	.
.	2E-i\	.	.	.	1e-i
.	2C/	.	.	.	.
=44.	=44.	=44.	=44.	=44.	=44.
0GGl	0Dl	0Gl	0G]	0B-il	0dl
!!LO:LB:i:g=z
=45||	=45||	=45||	=45||	=45||	=45||
*>C	*>C	*>C	*>C	*>C	*>C
*clefF4	*clefF4	*clefGv2	*clefGv2	*clefG2	*clefG2
*k[]	*k[]	*k[]	*k[]	*k[]	*k[]
*M2/1	*M2/1	*M2/1	*M2/1	*M2/1	*M2/1
*met(C2)	*met(C2)	*met(C2)	*met(C2)	*met(C2)	*met(C2)
!!section: Kyrie II
!!!OMD: Kyrie II
1.GG	0r	1.D	0r	1.B	0r
2GG/	.	2D/	.	2B/	.
=46.	=46.	=46.	=46.	=46.	=46.
0C	0r	2.E/	0r	2c/	0r
.	.	.	.	2A/	.
.	.	4F/	.	.	.
.	.	2E/	.	4c/	.
.	.	.	.	4d/	.
.	.	4C/	.	4e/	.
.	.	4D/	.	4f/	.
=47	=47	=47	=47	=47	=47
2.C/	0r	4E/	0r	2.g/	0r
.	.	4F/	.	.	.
.	.	1G	.	.	.
4D\	.	.	.	4f/	.
4E\	.	.	.	4e/	.
4F\	.	.	.	4d/	.
[2G\	.	2C/	.	[2e/	.
=48.	=48.	=48.	=48.	=48.	=48.
4G\]	1.C	2.E/	1.G	4e/]	1.e
4F\	.	.	.	4d/	.
4E\	.	.	.	4c/	.
4D\	.	4F/	.	4B/	.
1E	.	1G	.	1c	.
.	2C/	.	2G/	.	2e/
=49	=49	=49	=49	=49	=49
0D	0F	0F	2.A/	0d	2f/
.	.	.	.	.	2d/
.	.	.	4B-i\	.	.
.	.	.	2A/	.	4f/
.	.	.	.	.	4g/
.	.	.	4F/	.	4a/
.	.	.	4G/	.	4b\
=50.	=50.	=50.	=50.	=50.	=50.
0r	2.F\	0r	4A/	0r	2.cc\
.	.	.	4B\	.	.
.	.	.	1c	.	.
.	4G\	.	.	.	4b\
.	4A\	.	.	.	4a/
.	4B\	.	.	.	4g/
.	[2c\	.	2F/	.	[2a/
=51	=51	=51	=51	=51	=51
0r	4c\]	0r	2.A/	0r	4a/]
.	4B\	.	.	.	4g/
.	4A\	.	.	.	4f/
.	4G\	.	4B\	.	4e/
.	1A	.	1c	.	1f
=52.	=52.	=52.	=52.	=52.	=52.
1GG	0G	1r	0B	2r	0g
.	.	.	.	2d/	.
1GG	.	[1G	.	4d/	.
.	.	.	.	4c/	.
.	.	.	.	4B/	.
.	.	.	.	4A/	.
=53	=53	=53	=53	=53	=53
2.GG/	0r	2G/]	0r	2G/	0r
.	.	4F/	.	2.d/	.
4AA/	.	4E/	.	.	.
4BB/	.	2.D/	.	.	.
4C/	.	.	.	4e/	.
[2D\	.	.	.	4f/	.
.	.	4E/	.	4g/	.
=54.	=54.	=54.	=54.	=54.	=54.
2D\]	0r	2F/	0r	2a/	0r
2GG/	.	2G/	.	1g	.
1D	.	1A	.	.	.
.	.	.	.	2f#i/	.
=55	=55	=55	=55	=55	=55
[0E	1C	[0G	1r	[0g	2r
.	.	.	.	.	2g/
.	1C	.	[1c	.	4g/
.	.	.	.	.	4f/
.	.	.	.	.	4e/
.	.	.	.	.	4d/
=56.	=56.	=56.	=56.	=56.	=56.
0E]	2.C/	0G]	2c\]	0g]	2c/
.	.	.	4B\	.	2.g/
.	4D\	.	4A/	.	.
.	4E\	.	2.G/	.	.
.	4F\	.	.	.	4a/
.	[2G\	.	.	.	4b\
.	.	.	4A/	.	4cc\
=57	=57	=57	=57	=57	=57
0r	2G\]	1r	2B\	1r	2dd\
.	2C/	.	2c\	.	1cc
.	1G	1G	1d	1g	.
.	.	.	.	.	2b\
=58.	=58.	=58.	=58.	=58.	=58.
0AA	[0A	2.C/	[0c	1e	[0cc
.	.	4D/	.	.	.
.	.	2E/	.	2e/	.
.	.	[2AA/	.	2f/	.
=59	=59	=59	=59	=59	=59
0AA	0A]	2AA/]	0c]	2e/	0cc]
.	.	2.A/	.	1f	.
.	.	4G/	.	.	.
.	.	2F/	.	4e/	.
.	.	.	.	4d/	.
=60.	=60.	=60.	=60.	=60.	=60.
0AA	0r	2E/	1r	2c/	1r
.	.	2D/	.	2d/	.
.	.	1E	1c	4c/	1cc
.	.	.	.	4d/	.
.	.	.	.	4e/	.
.	.	.	.	4c/	.
=61	=61	=61	=61	=61	=61
0r	0D	0D	2.F/	0d	1a
.	.	.	4G/	.	.
.	.	.	2A/	.	2a/
.	.	.	[2D/	.	2b-i\
=62.	=62.	=62.	=62.	=62.	=62.
0r	0D	0r	2D/]	0r	2a/
.	.	.	2.d\	.	1b-i
.	.	.	4c\	.	.
.	.	.	2B\	.	4a/
.	.	.	.	.	4g/
=63	=63	=63	=63	=63	=63
0r	0D	0r	2A/	0r	2f/
.	.	.	2G/	.	2g/
.	.	.	1A	.	4f#i/
.	.	.	.	.	4g/
.	.	.	.	.	4a/
.	.	.	.	.	4f#i/
=64.	=64.	=64.	=64.	=64.	=64.
0r	0r	1r	0G	1r	0g
.	.	1G	.	1g	.
=65	=65	=65	=65	=65	=65
0AA	0r	2.C/	0r	2e/	0r
.	.	.	.	2f/	.
.	.	4D/	.	.	.
.	.	2E/	.	2e/	.
.	.	[2F/	.	[2a/	.
=66.	=66.	=66.	=66.	=66.	=66.
0AA	0r	4F/]	0r	4a/]	0r
.	.	4E/	.	4g/	.
.	.	2C/	.	4f/	.
.	.	.	.	4e/	.
.	.	2F/	.	2f/	.
.	.	[2A/	.	4e/	.
.	.	.	.	4d/	.
=67	=67	=67	=67	=67	=67
0AA	0r	4A/]	1r	2c/	1r
.	.	4G/	.	.	.
.	.	2F/	.	2d/	.
.	.	1E	1c	4c/	1cc
.	.	.	.	4d/	.
.	.	.	.	4e/	.
.	.	.	.	4c/	.
=68.	=68.	=68.	=68.	=68.	=68.
2.D\	0D	1D	2.F/	[0d	2a/
.	.	.	.	.	2b-i\
4E\	.	.	4G/	.	.
2F\	.	2r	2A/	.	2a/
[2BB-/	.	[2D/	[2B-i\	.	[2dd\
=69	=69	=69	=69	=69	=69
4BB-/]	0D	4D/]	4B-\]	0d]	4dd\]
4C/	.	4E/	4A/	.	4cc\
2D\	.	2F/	2F/	.	4b-i\
.	.	.	.	.	4a/
2.GG/	.	1G	2B-i\	.	2b-i\
.	.	.	[2d\	.	4a/
4AA/	.	.	.	.	4g/
=70.	=70.	=70.	=70.	=70.	=70.
2BB-i/	[0Dl	2D/	4d\]	[0dl	2f/
.	.	.	4c\	.	.
2GG/	.	2G/	2B-i\	.	2g/
1D	.	1A	1A	.	4f#i/
.	.	.	.	.	4g/
.	.	.	.	.	4a/
.	.	.	.	.	4f#i/
=71	=71	=71	=71	=71	=71
0GGl	0D]	0Bl	0Gl	0d]	0gl
==	==	==	==	==	==
*-	*-	*-	*-	*-	*-
!!!RDF**kern: l=long note in original notation
!!!RDF**kern: i=editorial accidental
!!!ENC:	Chris Gage 12-13-2012
!!!END:	2013/07/18/
!!!EED:	Jesse Rodin
!!!EEV:	2013/07/19/
!!!ONB:	Translated from MusicXML and edited on 2013/07/19/ by Craig Sapp
!!muse2ps: T^@{OPR}^u^@{ONM}{. }@{OTL}^C^@{COM}^i2I150v100,100,100,100,100,130Q16
